Papirus/48x48/apps/idevice.svg

<svg width="48" height="48" version="1.1" xmlns="http://www.w3.org/2000/svg">
 <rect x="8" y="6.999999" width="20" height="36" rx="1.6666667" ry="1.5652173" style="opacity:.2"/>
 <rect x="8" y="5.9999995" width="20" height="36" rx="1.6666667" ry="1.5652173" style="fill:#8e8e8e"/>
 <rect x="9" y="7.999999" width="18" height="29.000002" rx=".89999992" ry=".80555558" style="opacity:.6"/>
 <path d="m9.2499999 5.9999998c-0.6924995 0-1.2499999 0.669-1.2499999 1.5000001v0.4999999c0-0.831 0.9741664-1.4999999 1.666666-1.4999999l16.666667-1e-7c0.6925 0 1.666667 0.669 1.666667 1.5v-0.4999999c0-0.8310001-0.5575-1.5000001-1.25-1.5000001z" style="fill:#ffffff;opacity:.2"/>
 <circle cx="18.5" cy="39.499996" r="1.5" style="fill:#474747"/>
 <g transform="matrix(3.7795277,0,0,3.7795277,9.9275397e-8,1.7315822e-6)">
  <circle cx="9.5249996" cy="9.7895823" r="2.9104166" style="fill-opacity:.2"/>
  <circle cx="9.5249996" cy="9.5249996" r="2.9104161" style="fill:#fc9300"/>
 </g>
 <g>
  <path d="m33.464844 30.001953c-0.07792-0.0024-0.158382-0.0016-0.240235 2e-3 -1.465628-0.05726-2.773199 0.916139-3.429687 2.095703-1.24364 2.23454-0.860515 5.287808 0 7.701172 0.610984 1.713496 2.068487 4.199172 3.447266 4.199172s1.370176-0.699219 2.757812-0.699219c1.391034 0 1.381518 0.699219 2.763672 0.699219 1.382155 0 2.88117-2.745923 3.455078-4.199219 0.811629-2.055271 1.246682-5.466632 0-7.701172-0.658095-1.179564-1.968284-2.152963-3.4375-2.095703-1.312852-0.05725-2.108338 0.699219-2.78125 0.699219-0.629314 0-1.366312-0.665167-2.535156-0.701172z" style="fill:#ffffff"/>
  <path d="m34 27c2 0 1.997654 1.340548 2 3-2 0-2-1.2-2-3z" style="fill:#ffffff"/>
  <circle cx="43" cy="36" r="2.9999995" style="fill:#fc9300"/>
 </g>
</svg>

<svg xmlns="http://www.w3.org/2000/svg" width="48" height="48" version="1.1">
 <rect style="opacity:0.2" width="28" height="40" x="9" y="5" rx="2" ry="2"/>
 <rect style="fill:#8e8e8e" width="28" height="40" x="9" y="4" rx="2" ry="2"/>
 <rect style="opacity:0.6" width="24" height="32" x="11" y="6" rx="1" ry="1"/>
 <circle style="fill:#474747" cx="22.5" cy="40.5" r="1.5"/>
 <circle style="opacity:0.2" cx="36" cy="37" r="11"/>
 <circle style="fill:#fc9300" cx="36" cy="36" r="11"/>
 <path style="fill:#ffffff" d="M 33.465,30.002 C 33.387,30 33.306,30 33.225,30.004 31.759,29.947 30.451,30.92 29.795,32.1 28.551,34.334 28.934,37.387 29.795,39.801 30.406,41.514 31.863,44 33.242,44 34.621,44 34.612,43.301 36,43.301 37.391,43.301 37.382,44 38.764,44 40.146,44 41.645,41.254 42.219,39.801 43.03,37.746 43.465,34.334 42.219,32.1 41.561,30.92 40.25,29.947 38.781,30.004 37.468,29.947 36.673,30.703 36,30.703 35.371,30.703 34.634,30.038 33.465,30.002 Z"/>
 <path style="fill:#ffffff" d="M 34,27 C 36,27 35.998,28.341 36,30 34,30 34,28.8 34,27 Z"/>
 <circle style="fill:#fc9300" cx="43" cy="36" r="3"/>
 <path style="fill:#ffffff;opacity:0.2" d="M 11 4 C 9.892 4 9 4.892 9 6 L 9 7 C 9 5.892 9.892 5 11 5 L 35 5 C 36.108 5 37 5.892 37 7 L 37 6 C 37 4.892 36.108 4 35 4 L 11 4 z"/>
</svg>
